FINK
CUT[ELF BRAEUTE SIND VON MIR GELIEBT]
REG[Europa, Mitteleuropa, Deutschland]
KEY[F0215  16  G 3/4]
MEL[-5_  5_.43_2_1_3_  2__0__.
    -5_  4__.3_2_5_  3__0__.
    3_  3_.22_2_3_4#_  5__0_
    5_4#_3_  2_7__.6__  5__0__.
    5_  5_4_2__.34  5_6_5__0_
    5_  5_.42_2_3_4_  5__0_
    5_3_1_  6___6__  5___4_2_  1__0__. //] >>
FCT[national, patriotisch; Liebes - Lied]
